X:107
T:Jack of Both Sides. JJo8.107
%%VWML:JohnsonVol8-2184-p54-0
F:http://www.vwml.org/record/JohnsonVol8/2184/p54
Z:Transcribed by Simon Furey and Lewis Jones
Z:vmp.Simon Wilson 2013 www.village-music-project.org.uk
Z:Dance added by John Chambers 2017
N:The book actually has low A, for the final note. It's clearly a typo.
M:6/8
L:1/8
%Q:3/8=100
K:G
|:\
GAB cAF | GBd FAd | Egf edc | Bed cBA |\
GAB cAF | GBd FAd | Egf ed^c | d3 D3 :|
|:\
def ge^c | dfa gfe | dD=f C2e | B,dB cAF |\
GDB AGF | GDB ceg | fdB cAF | G3 G,3 :|
W: First Cu. lead thro' the 2d and 3d Cu. the 2d Cu.
W:follow them at the same time and all cast up
W:into their own Places .| foot it and hands
W:4 round at top :| Cross over two Cu. :||.
W:Lead up to the top foot it and cast off :||:
W:
T:Blind Man's Ramble. JJo8108, The
B:J.Johnson Choice Collection Vol 8 1758
Z:vmp.Simon Wilson 2013 www.village-music-project.org.uk
Z:Dance added by John Chambers 2017
T:Chips n'Shavins,aka. JJo8108
M:C|
L:1/8
%Q:1/4=140
K:D
   B/c/ |\
dA FD G2(FE) | D>FAF GE- EB/c/ |\
dAFDG2(FE) | A>cdA FD-D :|\
|: F/G/ |\
A2AG/F/ GEDF | A>BAF GE- EF/G/ |
A2AG/F/ GEDF | A>cdA FD-D :|\
|: B/c/ |\
d>faf g2(fe) | d>faf ge- ef/g/ |\
afge f>dcA | B<GFE FD-D :|
W: First Cu. lead thro' the 2d Cu. and the outside
W:below the 3d Cu. .| Cast up into the 2d Cu.
W:Place and foot it :| foot it contrary Corners
W:and turn :||. the other Corners the same :||:
W:Lead out on both Sides and turn .:||:.
W:
